src/topics/icons/upwork.svg

<svg height="153" preserveAspectRatio="xMidYMid" viewBox="0 0 512 153" width="512" xmlns="http://www.w3.org/2000/svg"><path d="m140.106589 96.6278184c-8.320937 0-16.117131-3.5232796-23.201172-9.2579795l1.724158-8.0960468.074964-.2998536c1.536749-8.6207906 6.40937-23.0887262 21.40205-23.0887262 11.244509 0 20.390044 9.1455344 20.390044 20.3900439-.037482 11.2070278-9.183017 20.3525622-20.390044 20.3525622zm0-61.3950219c-19.153148 0-33.995901 12.4439239-40.030454 32.9089312-9.2204981-13.8307467-16.192094-30.4351391-20.2775991-44.4158126h-20.6149341v53.6363104c0 10.5698389-8.6207907 19.1906296-19.1906296 19.1906296-10.569839 0-19.1906296-8.6207907-19.1906296-19.1906296v-53.6363104h-20.61493411v53.6363104c-.07496339 21.9642752 17.80380671 39.9929725 39.76808201 39.9929725 21.9642752 0 39.8430454-18.0286973 39.8430454-39.9929725v-8.9956076c4.0105417 8.3584187 8.9206442 16.7918008 14.8802342 24.2881405l-12.6313323 59.3710106h21.1021962l9.145534-43.066472c8.021084 5.134993 17.241582 8.358419 27.811421 8.358419 22.601464 0 41.004978-18.515959 41.004978-41.1174232 0-22.5639824-18.403514-40.9674963-41.004978-40.9674963z" fill="#6fda44"/><path d="m244.043338 37.5566618 13.306003 53.6363104 14.655344-53.6363104h17.466472l-22.526501 77.5121522h-17.466472l-13.830746-53.9736456-13.793265 53.9361636h-17.466472l-22.5265-77.5121519h17.466471l14.655344 53.6363104 13.306003-53.6363104h16.754319zm87.219912-2.3238653c-22.676427 0-41.042459 18.4035139-41.042459 41.0424597 0 22.6764275 18.403514 41.0424598 41.042459 41.0424598 22.676428 0 41.079942-18.3660323 41.079942-41.0424598s-18.403514-41.0424597-41.079942-41.0424597zm0 65.2181555c-13.343484 0-24.138213-10.7947295-24.138213-24.1382141s10.83221-24.1382137 24.138213-24.1382137c13.343485 0 24.138214 10.7947291 24.138214 24.1382137 0 13.3060029-10.794729 24.1382141-24.138214 24.1382141zm90.968082-45.5402639c-11.731771 0-21.214641 9.5203514-21.214641 21.2146413v38.9060026h-17.578916v-77.4746702h17.578916v11.9191801s7.49634-11.9566618 22.901318-11.9566618h5.397364v17.391508zm58.996194 18.3660323c12.481405-7.0465593 20.952269-20.4275257 20.952269-35.7575403h-17.578917c0 12.9311859-10.494875 23.4260615-23.426061 23.4260615h-2.361347v-60.79531481h-17.578917v114.88140521h17.578917v-36.5071739h2.098975c1.724158 0 3.97306 1.124451 4.985066 2.5112738l24.962811 33.9959001h21.064715z"/></svg>

<?xml version="1.0" encoding="UTF-8" standalone="no"?>
<svg width="512px" height="153px" viewBox="0 0 512 153" version="1.1" xmlns="http://www.w3.org/2000/svg" xmlns:xlink="http://www.w3.org/1999/xlink" preserveAspectRatio="xMidYMid">
	<g>
		<path d="M140.106589,96.6278184 C131.785652,96.6278184 123.989458,93.1045388 116.905417,87.3698389 L118.629575,79.2737921 L118.704539,78.9739385 C120.241288,70.3531479 125.113909,55.8852123 140.106589,55.8852123 C151.351098,55.8852123 160.496633,65.0307467 160.496633,76.2752562 C160.459151,87.482284 151.313616,96.6278184 140.106589,96.6278184 L140.106589,96.6278184 Z M140.106589,35.2327965 C120.953441,35.2327965 106.110688,47.6767204 100.076135,68.1417277 C90.8556369,54.310981 83.884041,37.7065886 79.7985359,23.7259151 L59.1836018,23.7259151 L59.1836018,77.3622255 C59.1836018,87.9320644 50.5628111,96.5528551 39.9929722,96.5528551 C29.4231332,96.5528551 20.8023426,87.9320644 20.8023426,77.3622255 L20.8023426,23.7259151 L0.187408492,23.7259151 L0.187408492,77.3622255 C0.112445095,99.3265007 17.9912152,117.355198 39.9554905,117.355198 C61.9197657,117.355198 79.7985359,99.3265007 79.7985359,77.3622255 L79.7985359,68.3666179 C83.8090776,76.7250366 88.7191801,85.1584187 94.6787701,92.6547584 L82.0474378,152.025769 L103.149634,152.025769 L112.295168,108.959297 C120.316252,114.09429 129.53675,117.317716 140.106589,117.317716 C162.708053,117.317716 181.111567,98.801757 181.111567,76.2002928 C181.111567,53.6363104 162.708053,35.2327965 140.106589,35.2327965 L140.106589,35.2327965 Z" fill="#6FDA44"></path>
		<path d="M244.043338,37.5566618 L257.349341,91.1929722 L272.004685,37.5566618 L289.471157,37.5566618 L266.944656,115.068814 L249.478184,115.068814 L235.647438,61.0951684 L221.854173,115.031332 L204.387701,115.031332 L181.861201,37.5191801 L199.327672,37.5191801 L213.983016,91.1554905 L227.289019,37.5191801 L244.043338,37.5191801 L244.043338,37.5566618 Z M331.26325,35.2327965 C308.586823,35.2327965 290.220791,53.6363104 290.220791,76.2752562 C290.220791,98.9516837 308.624305,117.317716 331.26325,117.317716 C353.939678,117.317716 372.343192,98.9516837 372.343192,76.2752562 C372.343192,53.5988287 353.939678,35.2327965 331.26325,35.2327965 Z M331.26325,100.450952 C317.919766,100.450952 307.125037,89.6562225 307.125037,76.3127379 C307.125037,62.9692533 317.957247,52.1745242 331.26325,52.1745242 C344.606735,52.1745242 355.401464,62.9692533 355.401464,76.3127379 C355.401464,89.6187408 344.606735,100.450952 331.26325,100.450952 Z M422.231332,54.9106881 C410.499561,54.9106881 401.016691,64.4310395 401.016691,76.1253294 L401.016691,115.031332 L383.437775,115.031332 L383.437775,37.5566618 L401.016691,37.5566618 L401.016691,49.4758419 C401.016691,49.4758419 408.513031,37.5191801 423.918009,37.5191801 L429.315373,37.5191801 L429.315373,54.9106881 L422.231332,54.9106881 Z M481.227526,73.2767204 C493.708931,66.2301611 502.179795,52.8491947 502.179795,37.5191801 L484.600878,37.5191801 C484.600878,50.450366 474.106003,60.9452416 461.174817,60.9452416 L458.81347,60.9452416 L458.81347,0.149926794 L441.234553,0.149926794 L441.234553,115.031332 L458.81347,115.031332 L458.81347,78.5241581 L460.912445,78.5241581 C462.636603,78.5241581 464.885505,79.6486091 465.897511,81.0354319 L490.860322,115.031332 L511.925037,115.031332 L481.227526,73.2767204 Z" fill="#000000"></path>
	</g>
</svg>
